X: 2058
T: Âhımı Hicrânımı Sakladım
C: Selahattin İnal
O: Turkey
F: http://compmusic.upf.edu/node/140
N: nihavent--sarki--duyek--ahimi_hicranimi--selahattin_inal
N: makam= nihavent
N: form= sarki
N: usul= duyek = 8/4
M: 8/4
L: 1/16
K: C _B _e  
Q: 1/4=120
%%MIDI tuningsystem comma53
d2 b4 a2 c'a2g bg2f  | f2 a4 g2 bg2f af2e  | \
w:  ARANAĞME  |   | 
d2 g4 f2 gf2g fe dc  | 
w:   | 
zd eg fe dc zc BA G4  | z2 d4 d2 g8  | \
w:   |  Â hı mı   | 
g12 f4  | zf ed e2 fg fe d6  | 
w:   |  hic *  *  râ *  *  nı *  mı   | 
zf ed e2 fg fe d6  | z2 d4 d2 b4 ag f2  | \
w:  SAZ  |  sak la dım   | 
z2 f4 f2 a4 gf e2  | 
w:  sak la dım   | 
z2 d4 e2 c4 ed e2  | e2 f2 e2 fg fe ed d4  | \
w:  sak la dım   |  *  giz *  li  *  tut *  *  *  tum    | 
db2a c'a2g bg2f af2e  | 
w:  SAZ  | 
zd eg fe dc zc BA G4  | z2 d4 d2 g8  | \
w:   |  Â hı mı   | 
g12 f4  | zf ed e2 fg fe d6  | 
w:   |  hic *  *  râ *  *  nı *  mı   | 
zf ed e2 fg fe d6  | z2 d4 d2 b4 ag f2  | \
w:  SAZ  |  sak la dım   | 
z2 f4 f2 a4 gf e2  | 
w:  sak la dım   | 
z2 d4 e2 c4 ed e2  | e2 f2 e2 fg fe ed d4  | \
w:  sak la dım   |  *  giz *  li  *  tut *  *  *  tum    | 
db2a c'a2g bg2f af2e  | 
w:  SAZ  | 
zd eg fe dc zA Bc d4  | z2 d4 d2 b8  | \
w:   |  Gön lü mü   | 
c'a2g ga3 g2 f6  | 
w:  yıl *  *  lar  *  yı lı   | 
aa3 g2 a2 gf2g fe d2  | g2 g2 f2 e2 d2 ef {g}fe ed  | 
w:  ha ya *  *  lin *  *  le   |  a vut  | 
d2 d4 c2 cB BA B4  | A2 B2 c2 d2 {e}dc BA G4  | \
w:  tum  *  *  ah   |  ha ya *  *  *  lin *  *  *  le   | 
gf g2 f2 e2 dc d3/2c/ BA B3/2A/  | 
w:  a vut  | 
G12 z4  | db2a c'a2g bg2f af2e  | zd eg fe dc zA Bc d4  | 
w:  tum    |  SAZ  |   | 
z2 d4 d2 b8  | c'a2g ga3 g2 f6  | aa3 g2 a2 gf2g fe d2  | 
w:  Gön lü mü   |  yıl *  *  lar  *  yı lı   |  ha ya *  *  lin *  *  le   | 
g2 g2 f2 e2 d2 ef {g}fe ed  | d2 d4 c2 cB BA B4  | \
w:  a vut  |  tum  *  *  ah   | 
A2 B2 c2 d2 {e}dc BA G4  | 
w:  ha ya *  *  *  lin *  *  *  le   | 
gf g2 f2 e2 dc d3/2c/ BA B3/2A/  | \
w:  a vut  | 
G12 z4  | db2a c'a2g bg2f af2e  | 
w:  tum    |  SAZ  | 
zd eg fe dc zd _1/4ef g4  | z4 fg3 g6 z2  | \
w:   |  O  genç lik   | 
a3g a2 (3gfg f8  | 
w:  gün *  le ri *  *  miz   | 
z2 a2 g2 a2 g4 f2 ed  | c4 c'a ag g8  | \
w:  dön *  mez_ as la   |  *  ge *  ri  *  ye    | 
ga2b ab ag fg2a ga gf  | 
w:  SAZ  | 
_1/4ef2g fg fe dc ag g4  | z2 b2 a2 ag gf _1/4ed ef g2  | 
w:   |  dön *  mez_ *  as *  *  *  la   | 
g2 f2 fe ed d8  | db2a c'a2g bg2f af2e  | \
w:  *  *  ge *  ri  *  ye    |  SAZ  | 
zd eg fe dc zA Bc d4  | 
w:   | 
z4 d2 d2 b8  | c'a2g a2 gf f8  | a2 a2 g2 a2 gf2g fe d2  | 
w:  Ya zık  ki   |  dön *  *  se  bi *  le   |  o  sev *  *  da *  *  yı  | 
g2 g2 f2 e2 d2 ef {g}fe ed  | d4 d2 c2 cB BA B4  | \
w:  u nut  |  tum  *  *  ah    | 
A2 B2 c2 d2 {e}dc BA G4  | 
w:  o  sev *  *  *  da *  *  *  yı   | 
gf g2 f2 e2 dc d3/2c/ BA B3/2A/  | \
w:  u nut  | 
G12 z4  | |


